X: 12734
T: Father Kelly's
R: reel
M: 4/4
K: Gmajor
|:GA|B2 GB AGEG|DGGF GABG|c2 AB cBAG|EAAG FDGA|
B2 GB AGEG|DGGF GABd|cdef gdBd|cAFA G2:|
|:Bc|d2 Bd gdBd|~d2 Bd gdBd|e2 ce agfe|defg agfe|
d2 Bd gdBd|~d2 Bd gdBd|cedc BDGB|ADFA G2:|

